X:1
T:Ich ruf' zu dir, Herr BWV 639
T:Choralvorspiel "Ich ruf' zu dir, Herr" 
T:J.S Bach
T:BWV 639
T:Arr F. Busoni
C:J.S Bach
%%score { ( 1 2 5 ) | ( 3 4 6 ) }
L:1/8
Q:1/4=40
M:4/4
K:Ab
V:1 treble nm="Piano" snm="Pno."
V:2 treble 
V:5 treble 
V:3 bass 
V:4 bass 
V:6 bass 
V:1
"^Andante""^Mit Andacht.""_sotto voce e legato""^Die Oberstimme sehr ausdrucksvoll und gehalten""_leise und gebunden""^Molto epressivo e tenuto il canto""^T"!pp! !arpeggio!c2 | %1
 A2 B2 A>G F>G | A/B/A/A/ (3(c/4B/4c/4(3B/4c/4B/4(3c/4B/4)z/4(A/4B/4 c2) (c>d | %3
 e2){!4!d} !5!c>!4!B !3!A2 Bc | %4
 d2-[Q:1/4=35]"^poco slentado" d/e/4f/4d/c/ !fermata!c2!pp! !arpeggio!c2 | A2 B2 A>G F>G | %6
 A/B/A/A/ (3(c/4B/4c/4(3B/4c/4B/4(3c/4B/4)z/4(A/4B/4 c2) c>d | e2{d} c>B A2 Bc | %8
 d2- d/e/4f/4d/c/ !fermata!c2"_etwas heller"!p! _e2 | f2 (e{e)de}d/4c/4d/ cBAB | %10
 c2 B2 !fermata!A2 !tenuto![Cc]2 | %11
 !arpeggio!!tenuto!c2 !tenuto![Cc]2 !tenuto![B,B]2 !tenuto![_A,A]2 | %12
 !tenuto![G,G]4 !fermata![F,F]4 | !tenuto![A,A]2 !tenuto![G,G]2 !tenuto![F,F]4 | %14
 !tenuto![E,E]6"^poco aumentado" E2[Q:1/4=35] | %15
 A2[Q:1/4=37]"^T"!p! A2 B2[Q:1/4=39]"^T" !arpeggio!B2 | %16
"^ten." !tenuto!c6[Q:1/4=37]"^T""^dim." !tenuto![Dd]2 | %17
 !tenuto![Cc]2[Q:1/4=35]"^T" !tenuto![B,B]2 !tenuto![A,A]2[Q:1/4=32]"^T" !tenuto![F,F]>G | %18
 !tenuto![A,A]2 !tenuto![G,G]2 !tenuto![F,A,F]2[K:bass]"^più obscuro, ma seùpre cantando" _E,2 | %19
 A,2 A,2 B,2 B,2 | C6 [D,D]2 | [C,C]2 [B,,B,]2 [A,,A,]2 F,>G, | %22
!pp! !tenuto![A,,=D,A,]2 !tenuto![_B,,_D,G,]2 !tenuto![=A,,C,F,]4 |] %23
V:2
 (A,/C/F/=E/) | %1
 F/C/(A,/[I:staff +1]F,/-[I:staff -1] !1!G,/)B,/D/C/[I:staff +1] F,/[I:staff -1]A,/C/B,/ A,/[I:staff +1]F,/[I:staff -1]A,/C/ | %2
 F/=E/F/B/ (G/F/E/F/) =E/C/[I:staff +1]G,/B,/ A,/[I:staff -1]C/F/A/ | %3
 G/E/A/G/ !2!A/!1!E/!2!F/!1!_G/ !2!F/D/F/A/ =G/D/C/_G/ | %4
 F/[I:staff +1]B,/[I:staff -1]D/F/ B/A/G/A/ G/C/=E/B,/ !arpeggio!A,/C/F/E/ | %5
 F/C/(A,/[I:staff +1]F,/[I:staff -1] G,/)B,/D/C/[I:staff +1] F,/[I:staff -1]A,/C/B,/ A,/[I:staff +1]F,/[I:staff -1]A,/C/ | %6
 F/=E/F/B/ (G/F/E/F/) E/C/[I:staff +1]G,/B,/ A,/[I:staff -1]C/F/A/ | %7
 G/E/A/G/ A/E/F/_G/ F/D/F/A/ =G/D/C/_G/ | %8
 F/[I:staff +1]B,/[I:staff -1]D/F/ B/A/G/A/ G/B,/A,/F/ x2 | x4 A/E/D/G/ C/F/A/!mf!G/ | %10
 A/!2!E/A,/_G/ F/!4!A,/!4!=G,/D/ C/A,/C/E/ z/ =G/B,/G/ | =A,/C/F/G/ =A/F/E/A/ D/G/_A/G/ C/F/G/F/ | %12
 D/F/G/F/ =E/B,/D/C/ A,/C/F/=E/ F/C/A,/F,/ | B,/F/G/F/ B,/E/F/E/ C/E/F/E/ =D/!2!G,/!3!=B,/!4!D/ | %14
 G,/C/E/_D/ G,/_B,/D/C/ E,/A,/C/B,/ D/!p!B,/"^T"E,/D/ | %15
[I:staff +1] (F,/[I:staff -1]A,/D/C/)[I:staff +1] F,/[I:staff -1]A,/C/D/[I:staff +1] (F,/[I:staff -1]A,/B,/(A,/) !arpeggio!G,/)B,/_D/C/- | %16
[I:staff +1] (A,/!<(![I:staff -1]C/E/A/ E/B/c/!<)!"_poco"B/!>(! =A/E/_G/!>)![I:staff +1]=A,/) B,/[I:staff -1]=G/[I:staff +1]_A,/[I:staff -1]F/ | %17
[I:staff +1] G,/[I:staff -1]=E/F/_E/[I:staff +1] F,/[I:staff -1]D/E/D/[I:staff +1] _E,/[I:staff -1]C/D/C/ B,/A,/G, | %18
 =D/F/G/F/ =E/_D/_B,/G,/[I:staff +1] F,,/C,/A,,/F,,/[K:bass][I:staff -1] D,/"_molto legato"[I:staff +1]_B,,/E,,/D,/ | %19
 x6[I:staff -1] E,2- | %20
[I:staff +1] (A,,/C,/[I:staff -1]E,/A,/ E,/B,/C/B,/ =A,/E,/_G,/[I:staff +1]=A,,/)[I:staff -1] z/ (=G,F,/) | %21
 z/ =E,/F,/_E,/ z/ D,/E,/D,/ z/ (C,/D,/C,/ B,,/A,,/[I:staff +1]G,,/F,,/) | x8 |] %23
V:3
"_Con Pedale.""_Der Bass weich und getragen.""_Il basso dolce e sustenuto."!pp!!ped! ([F,,,F,,][F,,,F,,]) | %1
 [F,,F,]F,, [F,,F,][=E,,=E,] [F,,F,][F,,F,]F,,[_E,,_E,] | %2
 [D,,D,][D,,D,][D,,D,][D,,D,] [C,,C,]C,!ped-up!!ped! F,[F,,F,]!ped-up! | %3
 [C,C][C,C][C,C][C,C] [C,C][C,C] [B,,B,][=A,,=A,] | %4
 B,,[_A,,_A,][G,,G,][F,,F,] [=E,,=E,][C,,C,]"^più dolce""_sehr weich"!pp! [F,,,C,,F,,][F,,,C,,F,,] | %5
 [F,,C,F,][F,,C,] [F,,D,F,][=E,,C,=E,] [F,,C,F,][F,,C,F,] [F,,C,][_E,,C,_E,] | %6
 [D,,D,][D,,D,][D,,D,][D,,D,] [C,,C,]C, [F,,C,A,][F,A,] | %7
 [C,G,C][C,A,C][C,A,C][C,A,C] [C,A,C][C,A,C][B,,G,B,][=A,,_G,=A,] | %8
 [B,,F,][_A,,_A,][G,,G,][F,,F,] [=E,,=E,][F,,F,]"^poco più sonoro""_sehr weich" (!tenuto!C,!tenuto!C,) | %9
 A,/C/B,/D/ (B,/D/[I:staff -1]A/G/)[I:staff +1] [A,,A,][E,,E,][F,,F,][D,,D,] | %10
!mf! [E,,E,][C,,C,][D,,D,][E,,E,] [A,,,A,,][A,,,A,,][=E,,,=E,,]!p![E,,,E,,] | %11
 [F,,,F,,][F,,,F,,]!p![F,,F,][F,,F,] [F,,F,][=E,,=E,][F,,F,][D,,D,] | %12
 [B,,,B,,][G,,,G,,][C,,C,][C,,C,]!ppp!!pp! [D,,F,,A,,D,][D,,F,,A,,D,][D,,F,,A,,D,][D,,F,,A,,D,] | %13
 [=D,,B,,=D,][D,,B,,D,] [E,,B,,E,][E,,B,,E,] [=A,,,F,,=A,,][A,,,F,,A,,] [=B,,,G,,=B,,][B,,,G,,B,,] | %14
 [C,,G,,C,][C,,G,,C,] [_B,,,E,,=B,,][B,,,E,,B,,] [A,,,E,,A,,][A,,,E,,A,,] [G,,,E,,G,,][G,,,E,,G,,] | %15
 [F,,A,,C,F,][F,,A,,C,F,][E,,A,,C,F,][E,,A,,C,F,] [=D,,A,,B,,F,][D,,A,,B,,F,]!p! [E,,B,,E,][E,,B,,E,] | %16
 [A,,C,E,A,][A,,C,E,A,] [_G,,C,E,_G,][G,,C,E,G,] [F,,C,E,F,][F,,C,E,] [B,,F,B,][B,,F,_A,] | %17
 [B,,=E,] (!tenuto![A,,,A,,]2 !tenuto![G,,,G,,-]2 .[F,,,F,,]) [D,,D,][D,,D,] | %18
 [=B,,,=B,,][B,,,B,,] [C,,C,][C,,C,] F,,2!ped! G,,G,, | %19
 F,,/A,,/-D,/C,/[I:staff -1] F,/[I:staff +1]A,,/C,/B,,/[I:staff -1] F,/[I:staff +1]A,,/B,,/A,,/ G,,/B,,/_D,/C,/ | %20
 A,,A,, (.[_G,,C,].[G,,C,]) (.[F,,C,].[F,,C,]) (B,,_A,,) | (G,,A,,) (F,,G,,) (_E,,F,,-) D,,2 | %22
 !tenuto![=B,,,F,,=B,,]2 !tenuto![C,,=E,,C,]2 !tenuto![F,,,F,,]4!ped-up! |] %23
V:4
 x2 | x8 | x8 | x8 | x8 | x8 | (A,,2 G,,2-) G,,2 x2 | x8 | x F,D,B,, C,C, (G,/D/A,/C/) | %9
 D,D,E,E, x4 | x8 | x8 | x8 | x8 | x8 | x8 | x8 | x2 [A,,D,] x [G,,C,] x3 | x8 | %19
 F,,[F,,A,,] E,,E,, =D,,D,, E,,E,, | x8 | B,,,A,,,- A,,,G,,,- G,,,F,,, F,, x | x8 |] %23
V:5
 x2 | x8 | x8 | x8 | x8 | x8 | x8 | x8 | x8 | x8 | x8 | x/ C x13/2 | x8 | x8 | x8 | x8 | C/ x15/2 | %17
 x8 | x6[K:bass] x2 | x8 | E, x7 | x8 | x8 |] %23
V:6
 x2 | x8 | x8 | x8 | x8 | x8 | x8 | x8 | x8 | x8 | x8 | x8 | x8 | x8 | x8 | x8 | x8 | %17
 x15/2 !2!F,/ | x8 | x8 | x8 | x8 | x8 |] %23

